X: 21133
T: La GITANA
Q: "In the manner of a waltz."
%R: waltz
B: W. Hamilton "Universal Tune-Book" Vol. 2 Glasgow 1846 p.113 #3
S: http://s3-eu-west-1.amazonaws.com/itma.dl.printmaterial/book_pdfs/hamiltonvol2web.pdf
Z: 2016 John Chambers <jc:trillian.mit.edu>
M: 3/4
L: 1/16
K: G
% - - - - - - - - - - - - - - - - - - - - - - - - -
G2d2e2 | c2(cB)c2 | D2c2d2 | B2(B^A)B2 |\
D2B2c2 | A2(A^G)A2 | (fe).d.c(BA) | (GA)(BF).G.E |\
D2d2e2 | c2(cB)c2 | D2c2d2 | B2(B^A)B2 |\
D2B2c2 | A2(A^G)A2 | (fe).d.c(BA) | "^Fine."G4 H|]
A2 |\
d2(dA).df | e2d3^c | B2e3B | e2e3d |\
d2^c2B2 | A2(B^cde) | f2(defg) | a2 zAB^c |\
d2dAdf | e2d3^c | e2e3B | e2e3d |\
d2^c2B2 | A2(^GAB^c) | (ed^cd).f.a | d4 "^D.C."z2 |]
% - - - - - - - - - - - - - - - - - - - - - - - - -

%%sep 1 1 500
%%sep 1 1 500

